extensions/rtl/assets/calendar-icon-svg.svg

<svg width="68" height="68" viewBox="0 0 68 68" fill="none" xmlns="http://www.w3.org/2000/svg">
<path d="M0.5 34C0.5 15.4985 15.4985 0.5 34 0.5C52.5015 0.5 67.5 15.4985 67.5 34C67.5 52.5015 52.5015 67.5 34 67.5C15.4985 67.5 0.5 52.5015 0.5 34Z" stroke="#C6C6C6"/>
<path d="M43 19V22M25 19V22" stroke="#0D0D0D" stroke-width="1.5" stroke-linecap="round" stroke-linejoin="round"/>
<path d="M33.9932 35.5H34.0068M33.9932 41.5H34.0068M39.9865 35.5H40M28 35.5H28.0135M28 41.5H28.0135" stroke="#0D0D0D" stroke-width="2" stroke-linecap="round" stroke-linejoin="round"/>
<path d="M21.25 28H46.75" stroke="#0D0D0D" stroke-width="1.5" stroke-linecap="round" stroke-linejoin="round"/>
<path d="M19.75 34.3648C19.75 27.8289 19.75 24.5609 21.6282 22.5305C23.5064 20.5 26.5292 20.5 32.575 20.5H35.425C41.4707 20.5 44.4937 20.5 46.3719 22.5305C48.25 24.5609 48.25 27.8289 48.25 34.3648V35.1352C48.25 41.6711 48.25 44.9391 46.3719 46.9696C44.4937 49 41.4707 49 35.425 49H32.575C26.5292 49 23.5064 49 21.6282 46.9696C19.75 44.9391 19.75 41.6711 19.75 35.1352V34.3648Z" stroke="#0D0D0D" stroke-width="1.5" stroke-linecap="round" stroke-linejoin="round"/>
<path d="M20.5 28H47.5" stroke="#0D0D0D" stroke-width="1.5" stroke-linecap="round" stroke-linejoin="round"/>
</svg>

<svg xmlns="http://www.w3.org/2000/svg" width="68" height="68" fill="none"><path stroke="#C6C6C6" d="M.5 34C.5 15.499 15.499.5 34 .5 52.502.5 67.5 15.499 67.5 34c0 18.502-14.998 33.5-33.5 33.5C15.499 67.5.5 52.502.5 34Z"/><path stroke="#0D0D0D" stroke-linecap="round" stroke-linejoin="round" stroke-width="1.5" d="M43 19v3m-18-3v3"/><path stroke="#0D0D0D" stroke-linecap="round" stroke-linejoin="round" stroke-width="2" d="M33.993 35.5h.014m-.014 6h.014m5.98-6H40m-12 0h.014m-.014 6h.014"/><path stroke="#0D0D0D" stroke-linecap="round" stroke-linejoin="round" stroke-width="1.5" d="M21.25 28h25.5M19.75 34.365c0-6.536 0-9.804 1.878-11.835 1.878-2.03 4.901-2.03 10.947-2.03h2.85c6.046 0 9.069 0 10.947 2.03s1.878 5.299 1.878 11.835v.77c0 6.536 0 9.804-1.878 11.835C44.494 49 41.47 49 35.425 49h-2.85c-6.046 0-9.069 0-10.947-2.03S19.75 41.67 19.75 35.135zM20.5 28h27"/></svg>
